X:11
T:O Waly, Waly Up Yon Bank
C:arr. Carlo Minasi
M:3/4
L:1/8
B:Chappell's One Hundred Scotch Melodies
B:Arranged for the Concertina by Carlo Minasi
Q:"Andante  "1/4=120
Z:Peter Dunk 2012
K:C
!p!C|([EC]>[FD]) [G2E2]c2|([dGF]>e) [d3G3F3] D|\
([EC]>[FD]) [G2E2] c2|([eG]>[dF]) [d3E3] C|\
([EC]>[FD]) [G2E2] c2|([dGF]>e) [d3G3F3] D|\
([EC]>[FD]) [G2E2] d2|([eG]>[dF]) [c2E2]||
z_B|(A>G) F3 G|(AG _B3) A/G/|\
(Ac [G2E2C2]) e2|{e/}d>c c2 z(c|\
A>[GE][E3C3]) (c|GE D3) (_B|\
AG [c3E3]) E|{E/}L(D>C) C2 z|]

